X:1
T:60 Lessons for 2 Guitars, Op.168 - Joseph Küffner (1776 - 1856)
T:Leçon No.49
T:60 Lessons for 2 Guitars, Op.168 "à l'usage des commençants"
T:Joseph Küffner (1776 - 1856)
%%score { ( 1 2 ) ( 3 4 ) } { ( 5 6 ) ( 7 8 ) }
L:1/8
Q:1/4=120
M:3/4
K:A
V:1 treble-8 nm="Classical Guitar"
V:2 treble-8 
V:3 tab stafflines=6 strings=E2,A2,D3,G3,B3,E4 nostems nm="Guitare classique [Tablature]"
V:4 tab stafflines=6 strings=E2,A2,D3,G3,B3,E4 nostems 
V:5 treble-8 nm="Guitare classique"
V:6 treble-8 
V:7 tab stafflines=6 strings=E2,A2,D3,G3,B3,E4 nostems nm="Guitare classique [Tablature]"
V:8 tab stafflines=6 strings=E2,A2,D3,G3,B3,E4 nostems 
V:1
"^Ländler""_" ab | z ec'ec'e | z cacac | z dbdc'b | z cacab | z ec'ec'e | z cacac | z dbdc'b |1 %8
 A,2 [cea]2 :|2 A,2 [cea]2 z2 |:"_" (!>!^ab)=a!0!BaB | (!>!ag)!0!e!0!BeB | (gf).^d.B.c.d | %13
 eBgBbB | (!>!^ab)=aBaB | (!>!ag)eBeB | (gf).^d.B.c.d | [GBe]3 gab |"_" z ec'ec'e | z cacac | %20
 z dbdc'b | z cacab | z ec'ec'e | z cacac | z dbdc'b | A,2 [cea]2 z2 :| %26
V:2
 x2 | A,4 z2 | A,4 z2 | E,4 z2 | A,4 z2 | A,4 z2 | A,4 z2 | E,4 z2 |1 x4 :|2 x6 |: x6 | x6 | x6 | %13
 x6 | x6 | x6 | x6 | E,3 z z2 | A,4 z2 | A,4 z2 | E,4 z2 | A,4 z2 | A,4 z2 | A,4 z2 | E,4 z2 | %25
 x6 :| %26
V:3
 !1!A !1!B | x !3!E !1!c !3!E !1!c !3!E | x !3!C !1!A !3!C !1!A !3!C | x !3!D !1!B !3!D !1!c !1!B | %4
 x !3!C !1!A !3!C !1!A !1!B | x !3!E !1!c !3!E !1!c !3!E | x !3!C !1!A !3!C !1!A !3!C | %7
 x !3!D !1!B !3!D !1!c !1!B |1 !5!A,,2 [!3!C!2!E!1!A]2 :|2 !5!A,,2 [!3!C!2!E!1!A]2 x2 |: %10
 (!1!^A !1!B) !1!=A !2!B, !1!A !2!B, | (!1!A !1!G) !1!E !2!B, !1!E !2!B, | %12
 (!1!G !1!F) !2!^D !2!B, !2!C !2!D | !1!E !2!B, !1!G !2!B, !1!B !2!B, | %14
 (!1!^A !1!B) !1!=A !2!B, !1!A !2!B, | (!1!A !1!G) !1!E !2!B, !1!E !2!B, | %16
 (!1!G !1!F) !2!^D !2!B, !2!C !2!D | [!6!E,,!3!G,!2!B,!1!E]3 !1!G !1!A !1!B | %18
 x !3!E !1!c !3!E !1!c !3!E | x !3!C !1!A !3!C !1!A !3!C | x !3!D !1!B !3!D !1!c !1!B | %21
 x !3!C !1!A !3!C !1!A !1!B | x !3!E !1!c !3!E !1!c !3!E | x !3!C !1!A !3!C !1!A !3!C | %24
 x !3!D !1!B !3!D !1!c !1!B | !5!A,,2 [!3!C!2!E!1!A]2 x2 :| %26
V:4
 x2 | !5!A,,4 x2 | !5!A,,4 x2 | !6!E,,4 x2 | !5!A,,4 x2 | !5!A,,4 x2 | !5!A,,4 x2 | !6!E,,4 x2 |1 %8
 x4 :|2 x6 |: x6 | x6 | x6 | x6 | x6 | x6 | x6 | x6 | !5!A,,4 x2 | !5!A,,4 x2 | !6!E,,4 x2 | %21
 !5!A,,4 x2 | !5!A,,4 x2 | !5!A,,4 x2 | !6!E,,4 x2 | x6 :| %26
V:5
 z2 |"_" z2 [Ace]2 [Ace]2 | z2 [Ace]2 [Ace]2 | z2 [Gde]2 [Gde]2 | z2 [Ace]2 [Gde]2 | %5
 z2 [Ace]2 [Ace]2 | z2 [Ace]2 [Ace]2 | z2 [Gde]2 [Gde]2 |1 A,2 [Ace]2 :|2 A,2 [Ace]2 z2 |: %10
"_" z2 [^DAB]2 [DAB]2 | z2 [EGB]2 [EGB]2 | z2 [^DAB]2 [DAB]2 | z2 [EGB]2 [EGB]2 | %14
 z2 [^DAB]2 [DAB]2 | z2 [EGB]2 [EGB]2 | z2 [^DAB]2 [DAB]2 | E,2 [EGB]2 z2 |"_" z2 [Ace]2 [Ace]2 | %19
 z2 [Ace]2 [Ace]2 | z2 [Gde]2 [Gde]2 | z2 [Ace]2 [Ace]2 | z2 [Ace]2 [Ace]2 | z2 [Ace]2 [Ace]2 | %24
 z2 [Gde]2 [Gde]2 | A,2 [Ace]2 z2 :| %26
V:6
 x2 | A,6 | A,6 | E,6 | A,4 E,2 | A,6 | A,6 | E,6 |1 x4 :|2 x6 |: B,6 | E,6 | B,6 | E,6 | B,6 | %15
 E,6 | B,6 | x6 | A,6 | A,6 | E,6 | A,6 | A,6 | A,6 | E,6 | x6 :| %26
V:7
 x2 | x2 [!3!A,!2!C!1!E]2 [!3!A,!2!C!1!E]2 | x2 [!3!A,!2!C!1!E]2 [!3!A,!2!C!1!E]2 | %3
 x2 [!3!G,!2!D!1!E]2 [!3!G,!2!D!1!E]2 | x2 [!3!A,!2!C!1!E]2 [!6!E,,!3!G,!2!D!1!E]2 | %5
 x2 [!3!A,!2!C!1!E]2 [!3!A,!2!C!1!E]2 | x2 [!3!A,!2!C!1!E]2 [!3!A,!2!C!1!E]2 | %7
 x2 [!3!G,!2!D!1!E]2 [!3!G,!2!D!1!E]2 |1 !5!A,,2 [!3!A,!2!C!1!E]2 :|2 %9
 !5!A,,2 [!3!A,!2!C!1!E]2 x2 |: x2 [!4!^D,!3!A,!2!B,]2 [!4!D,!3!A,!2!B,]2 | %11
 x2 [!4!E,!3!G,!2!B,]2 [!4!E,!3!G,!2!B,]2 | x2 [!4!^D,!3!A,!2!B,]2 [!4!D,!3!A,!2!B,]2 | %13
 x2 [!4!E,!3!G,!2!B,]2 [!4!E,!3!G,!2!B,]2 | x2 [!4!^D,!3!A,!2!B,]2 [!4!D,!3!A,!2!B,]2 | %15
 x2 [!4!E,!3!G,!2!B,]2 [!4!E,!3!G,!2!B,]2 | x2 [!4!^D,!3!A,!2!B,]2 [!4!D,!3!A,!2!B,]2 | %17
 !6!E,,2 [!4!E,!3!G,!2!B,]2 x2 | x2 [!3!A,!2!C!1!E]2 [!3!A,!2!C!1!E]2 | %19
 x2 [!3!A,!2!C!1!E]2 [!3!A,!2!C!1!E]2 | x2 [!3!G,!2!D!1!E]2 [!3!G,!2!D!1!E]2 | %21
 x2 [!3!A,!2!C!1!E]2 [!3!A,!2!C!1!E]2 | x2 [!3!A,!2!C!1!E]2 [!3!A,!2!C!1!E]2 | %23
 x2 [!3!A,!2!C!1!E]2 [!3!A,!2!C!1!E]2 | x2 [!3!G,!2!D!1!E]2 [!3!G,!2!D!1!E]2 | %25
 !5!A,,2 [!3!A,!2!C!1!E]2 x2 :| %26
V:8
 x2 | !5!A,,6 | !5!A,,6 | !6!E,,6 | !5!A,,4 x2 | !5!A,,6 | !5!A,,6 | !6!E,,6 |1 x4 :|2 x6 |: %10
 !5!B,,6 | !6!E,,6 | !5!B,,6 | !6!E,,6 | !5!B,,6 | !6!E,,6 | !5!B,,6 | x6 | !5!A,,6 | !5!A,,6 | %20
 !6!E,,6 | !5!A,,6 | !5!A,,6 | !5!A,,6 | !6!E,,6 | x6 :| %26

